public/assets/logos/ggwp-white.svg

<svg fill="none" height="30" viewBox="0 0 31 30" width="31" xmlns="http://www.w3.org/2000/svg"><path d="m11.1762 3.00024c1.3226.34003 2.1912 1.15269 2.6646 2.2997.4733 1.14702.7927 2.35978 1.1562 3.551.2627.86593.4699 1.74886.7304 2.61476.1132.382.3578.5758.8267.5667 2.8469-.0272 5.6961.0386 8.5419-.034 1.5854-.0408 2.2864 1.3454 1.7462 2.6987-.4858 1.2184-.8051 2.5014-1.2264 3.7471-.4111 1.2093-.8686 2.4039-1.2865 3.611-.2638.7583-.5186 1.5222-.7326 2.2963-.3194 1.1527-.8052 2.1535-2.0701 2.5117-.2088.0714-.4263.1142-.6466.1269-4.7336.008-9.4672.0182-14.20073 0-1.68506 0-3.11871-1.793-2.39169-3.7108.4609-1.215.79949-2.4754 1.21962-3.7051.48355-1.4134 1.01127-2.8109 1.49482-4.2231.34878-1.0201.65227-2.0515.98634-3.0739.30198-.9218.61227-1.841.93086-2.75755.34879-.99514.72249-1.98235 1.06675-2.97975.39973-1.15268.77913-2.31217 1.19023-3.53966z" fill="#fff"/></svg>

<svg width="31" height="30" viewBox="0 0 31 30" fill="none" xmlns="http://www.w3.org/2000/svg">
<path d="M11.1762 3.00024C12.4988 3.34027 13.3674 4.15293 13.8408 5.29994C14.3141 6.44696 14.6335 7.65972 14.997 8.85094C15.2597 9.71687 15.4669 10.5998 15.7274 11.4657C15.8406 11.8477 16.0852 12.0415 16.5541 12.0324C19.401 12.0052 22.2502 12.071 25.096 11.9984C26.6814 11.9576 27.3824 13.3438 26.8422 14.6971C26.3564 15.9155 26.0371 17.1985 25.6158 18.4442C25.2047 19.6535 24.7472 20.8481 24.3293 22.0552C24.0655 22.8135 23.8107 23.5774 23.5967 24.3515C23.2773 25.5042 22.7915 26.505 21.5266 26.8632C21.3178 26.9346 21.1003 26.9774 20.88 26.9901C16.1464 26.9981 11.4128 27.0083 6.67927 26.9901C4.99421 26.9901 3.56056 25.1971 4.28758 23.2793C4.74848 22.0643 5.08707 20.8039 5.5072 19.5742C5.99075 18.1608 6.51847 16.7633 7.00202 15.3511C7.3508 14.331 7.65429 13.2996 7.98836 12.2772C8.29034 11.3554 8.60063 10.4362 8.91922 9.51965C9.26801 8.52451 9.64171 7.5373 9.98597 6.5399C10.3857 5.38722 10.7651 4.22773 11.1762 3.00024Z" fill="white"/>
</svg>
